public/topics/10.svg

<svg width="250" height="250" viewBox="0 0 250 250" fill="none" xmlns="http://www.w3.org/2000/svg">
<rect width="250" height="250" rx="30" fill="#993366"/>
<path d="M79.6 89.8C78.2667 115.933 77.6 136.733 77.6 152.2C77.6 160.2 77.8 167.8 78.2 175C79.2667 175.8 81.3333 176.2 84.4 176.2L89 176C90.8667 175.733 92.6 175.6 94.2 175.6C97.6667 175.6 100.333 176.2 102.2 177.4C104.2 178.6 105.2 180.933 105.2 184.4C105.2 187.733 104.2 190.333 102.2 192.2C100.333 194.067 96.4 195 90.4 195C85.3333 195 79.2 194.6 72 193.8C70.2667 193.667 68.6 193.533 67 193.4C65.4 193.267 63.9333 193.2 62.6 193.2C55.2667 193.333 49.8 193.6 46.2 194C42.6 194.4 38.5333 194.6 34 194.6C29.8667 194.6 27.8 191.467 27.8 185.2C27.8 179.2 31.6667 176.2 39.4 176.2C40.6 176.2 42.5333 176.333 45.2 176.6C47.4667 177 49.8667 177.2 52.4 177.2C53.8667 177.2 55.0667 177.133 56 177C56.1333 168.067 56.6 155.067 57.4 138C58.2 118 58.6 103.2 58.6 93.6C57.9333 93.7333 55.6 94.6667 51.6 96.4C45.4667 99.4667 40.9333 101 38 101C36.4 101 34.9333 100.2 33.6 98.6C32.2667 96.8667 31.6 94.8667 31.6 92.6C31.6 90.3333 33 88.1333 35.8 86C38.6 83.8667 43.1333 81.0667 49.4 77.6C52.8667 75.8667 56.2 73.9333 59.4 71.8C60.2 71.2667 61.3333 70.7333 62.8 70.2C64.4 69.6667 65.6 69.4 66.4 69.4C69.8667 69.4 73 70.1333 75.8 71.6C78.7333 72.9333 80.2 74.7333 80.2 77L79.6 89.8ZM207.573 82.2C211.973 89 215.507 96.8 218.173 105.6C220.84 114.267 222.173 123.133 222.173 132.2C222.173 143 220.307 153.267 216.573 163C212.973 172.733 207.507 180.667 200.173 186.8C192.973 192.933 184.173 196 173.773 196C164.04 196 155.107 193.533 146.973 188.6C138.84 183.533 132.707 177.667 128.573 171C125.507 166.067 123.173 160.533 121.573 154.4C119.973 148.133 119.173 141.867 119.173 135.6C119.173 124.667 121.44 114 125.973 103.6C130.64 93.2 137.04 84.8667 145.173 78.6C152.907 72.8667 161.773 70 171.773 70C182.84 70 194.773 74.0667 207.573 82.2ZM153.973 96C152.773 98 151.573 99.8 150.373 101.4C147.44 105.8 145.307 109.533 143.973 112.6C142.64 115.533 141.44 120.067 140.373 126.2C139.84 129 139.573 132.267 139.573 136C139.573 145.467 141.44 153.667 145.173 160.6C149.04 167.4 154.307 172 160.973 174.4C164.173 175.6 167.773 176.2 171.773 176.2C181.773 176.2 189.307 171.8 194.373 163C199.573 154.067 202.173 143.067 202.173 130C202.173 117.867 199.907 107.933 195.373 100.2C190.84 92.3333 183.84 88.4 174.373 88.4C170.507 88.4 167.173 89 164.373 90.2C161.707 91.4 158.24 93.3333 153.973 96Z" fill="white"/>
</svg>

<svg xmlns="http://www.w3.org/2000/svg" width="250" height="250" fill="none" viewBox="0 0 250 250"><rect width="250" height="250" fill="#936" rx="30"/><path fill="#fff" d="M79.6 89.8q-2 39.2-2 62.4 0 12 .6 22.8 1.6 1.2 6.2 1.2l4.6-.2q2.8-.4 5.2-.4 5.2 0 8 1.8 3 1.8 3 7 0 5-3 7.8-2.8 2.8-11.8 2.8-7.6 0-18.4-1.2a789 789 0 0 1-5-.4 54 54 0 0 0-4.4-.2q-11 .2-16.4.8t-12.2.6q-6.2 0-6.2-9.4 0-9 11.6-9 1.8 0 5.8.4 3.4.6 7.2.6 2.2 0 3.6-.2.2-13.4 1.4-39 1.2-30 1.2-44.4-1 .2-7 2.8Q42.4 101 38 101q-2.4 0-4.4-2.4-2-2.6-2-6t4.2-6.6 13.6-8.4a93 93 0 0 0 10-5.8q1.2-.8 3.4-1.6 2.4-.8 3.6-.8 5.2 0 9.4 2.2 4.4 2 4.4 5.4zm127.973-7.6q6.6 10.2 10.6 23.4a90 90 0 0 1 4 26.6q0 16.2-5.6 30.8-5.4 14.6-16.4 23.8-10.8 9.2-26.4 9.2-14.6 0-26.8-7.4-12.2-7.6-18.4-17.6-4.6-7.4-7-16.6-2.4-9.4-2.4-18.8 0-16.4 6.8-32 7-15.6 19.2-25 11.6-8.6 26.6-8.6 16.6 0 35.8 12.2m-53.6 13.8q-1.8 3-3.6 5.4-4.4 6.6-6.4 11.2-2 4.4-3.6 13.6-.8 4.2-.8 9.8 0 14.2 5.6 24.6 5.8 10.2 15.8 13.8 4.8 1.8 10.8 1.8 15 0 22.6-13.2 7.8-13.4 7.8-33 0-18.2-6.8-29.8-6.8-11.8-21-11.8-5.8 0-10 1.8-4 1.8-10.4 5.8"/></svg>
